!!!!SEGMENT: pl-cz--iii-370--001-009_krogulski-jozef-wladyslaw--msza-c-na-benedykcyia.krn
!!!cenid: 18xx:946
!!!COM: Krogulski, Józef Władysław
!!!COM-rismid: pe30001797
!!!CDT: 1815/10/04-1842/01/09
!!!CNT: Polish
!!!OPR: Msza C
!!!OTL: Na Benedykcyią
!!!OMV: 009
!!!PDT:
!!!AGN: Sacred; Mass
!!!SMS-siglum: PL-CZ
!!!SMS-shelfmark: III-370
!!!SMS-shelfwork: 001-009 M
!!!SMS-variant:
!!!SMS-altvar:
!!!NIFC-rismid: 300000646
!!!URL-scan: http://repozytorium.nifc.pl/skany/pl-cz-nut--iii-370
!!!ONB-nifc: UWAGA: części Mszy: Kyrie, Gloria, Andante przed Ewangelią, Credo, Offertorium, Sanctus, Benedictus, Agnus, Na Benedykcyią
!!!key: C
**kern	**kern	**dynam	**kern	**text	**dynam	**kern	**text	**dynam	**kern	**text
*part4	*part4	*part4	*part3	*part3	*part2	*part2	*part2	*part1	*part1	*part1
*staff5	*staff4	*	*staff3	*staff3	*staff2	*staff2	*	*staff1	*staff1	*
*I"Organ	*I"Organ	*	*I"Bas	*	*	*I"Spiew Drugi	*	*	*I"Spiew Pierwszy	*
*I'org	*I'org	*	*I'B	*	*	*I'S 2	*	*	*I'S 1	*
*Iorgan	*Iorgan	*	*Ibass	*	*	*Isoprn	*	*	*Isoprn	*
*ICklav	*ICklav	*	*ICvox	*	*	*ICvox	*	*	*ICvox	*
*IGacmp	*IGacmp	*	*	*	*	*	*	*	*	*
*>[A,A1,A,A2,B]	*>[A,A1,A,A2,B]	*>[A,A1,A,A2,B]	*>[A,A1,A,A2,B]	*>[A,A1,A,A2,B]	*>[A,A1,A,A2,B]	*>[A,A1,A,A2,B]	*>[A,A1,A,A2,B]	*>[A,A1,A,A2,B]	*>[A,A1,A,A2,B]	*>[A,A1,A,A2,B]
*>A	*>A	*>A	*>A	*>A	*>A	*>A	*>A	*>A	*>A	*>A
*clefF4	*clefG2	*	*clefF4	*	*	*clefG2	*	*	*clefG2	*
*k[]	*k[]	*	*k[]	*	*	*k[]	*	*	*k[]	*
*C:	*C:	*	*C:	*	*	*C:	*	*	*C:	*
*M3/4	*M3/4	*	*M3/4	*	*	*M3/4	*	*	*M3/4	*
*all\right	*all\right	*	*all\right	*	*	*all\right	*	*	*all\right	*
!	!	!	!LO:SIC:v:l:s=Bło-	!	!	!	!	!	!	!
!	!LO:TX:a:i:t=Allegro Moder	!LO:DY:rj	!LO:TX:a:i:t=Allegro Moderato	!	!LO:DY:a:rj	!LO:TX:a:t=Allegro Mo	!	!LO:DY:a:rj	!LO:TX:a:t=Allegro Moder	!
4GG/	4g 4G/	f	4GG/	Bog-	f	4g/	Bło-	f	4g/	Bło-
=1	=1	=1	=1	=1	=1	=1	=1	=1	=1	=1
*	*	*	*	*	*	*2\right	*	*	*2\right	*
2C/	2cc 2c/	.	2C/	-gos-	.	2cc\	-go-	.	2cc\	-go-
4GG/	4G/	.	4GG/	-ław	.	4g/	-sław	.	4g/	-sław
=2	=2	=2	=2	=2	=2	=2	=2	=2	=2	=2
*2\right	*2\right	*	*	*	*	*	*	*	*	*
2E\	2ee 2e\	.	4E\	Bo-	.	4ee\	Bo-	.	4ee\	bo-
.	.	.	4E\	-ze	.	4ee\	-ze	.	4ee\	-ze
4C\	4cc 4c/	.	4C\	Two-	.	4cc\	Two-	.	4cc\	two-
=3	=3	=3	=3	=3	=3	=3	=3	=3	=3	=3
4G\	4gg 4g\	.	4G\	-ie-	.	4gg\	-ie-	.	4gg\	-ie-
4E\	4ee 4e\	.	4E\	-mu	.	4ee\	-mu	.	4ee\	-mu
4C\	4cc 4c\	.	4C\	lu-	.	4cc\	lu-	.	4cc\	lu-
!	!	!	!LO:LB:g=original	!	!	!LO:LB:g=original	!	!	!	!
=4	=4	=4	=4	=4	=4	=4	=4	=4	=4	=4
4GG/	4g 4G/	.	4GG/	-do-	.	4g/	-do-	.	4g/	-do-
4GG/	4g 4G/	.	4GG/	-wi	.	4g/	-wi	.	4g/	-wi
4r	8bL 8g\	.	4r	.	.	4r	.	.	4r	.
.	8ccJ 8a\	.	.	.	.	.	.	.	.	.
=5	=5	=5	=5	=5	=5	=5	=5	=5	=5	=5
2.G 2.GG\	2dd 2b\	.	4G\	Przim	.	4b\	przyim	.	4dd\	przyim
.	.	.	4G\	tę	.	4b\	te	.	4dd\	tę
.	4ee 4cc\	.	4G\	o-	.	4cc\	o-	.	4ee\	o-
=6	=6	=6	=6	=6	=6	=6	=6	=6	=6	=6
*	*	*	*2\right	*	*	*	*	*	*	*
2.G 2.GG\	2ff 2dd\	.	2G\	-fia-	.	2dd\	-fia-	.	2ff\	-fia-
.	4dd 4b\	.	4G\	-re	.	4b\	-rę	.	4dd\	-rę
!LO:LB:g=original	!	!	!	!	!	!	!	!	!	!
=7	=7	=7	=7	=7	=7	=7	=7	=7	=7	=7
2C/	2ee 2cc\	.	4.C/	czci	.	4.cc\	czci	.	4.ee\	czci
.	.	.	8C/	i	.	8cc\	i	.	8ee\	i
4F\	8ggL 8ee\	.	8F\	dzięk-	.	8ee\	dziek-	.	8gg\	dzięk-
.	8ffJ 8dd\	.	8F\	-czy-	.	8dd\	-czy-	.	8ff\	-czy-
!	!	!	!	!	!	!	!	!	!LO:LB:g=original	!
=8	=8	=8	=8	=8	=8	=8	=8	=8	=8	=8
[4G\	4ee 4cc\	.	4G\	-nie-	.	4cc\	-nie-	.	4ee\	-nie-
8G\L]	4dd 4b\	.	4G\	-nia	.	4b\	-nia	.	4dd\	-nia
8B\	.	.	.	.	.	.	.	.	.	.
8A\	4r	.	4r	.	.	4r	.	.	4r	.
8G\J	.	.	.	.	.	.	.	.	.	.
=9	=9	=9	=9	=9	=9	=9	=9	=9	=9	=9
*	*^	*	*	*	*	*	*	*	*	*
4F#X\	2.dd/	4a\	.	4F#X\	Przim	.	4g/	przyj	.	4dd\	przyim
4E\	.	4g\	.	4E\	tę	.	4g/	te	.	4dd\	tę
4D\	.	4f#X\	.	4D\	o-	.	4f#X/	o-	.	4dd\	o-
*	*v	*v	*	*	*	*	*	*	*	*	*
!	!	!	!LO:LB:g=original	!	!	!LO:LB:g=original	!	!	!	!
=10	=10	=10	=10	=10	=10	=10	=10	=10	=10	=10
2.G\	4b 4g\	.	2G\	-fia-	.	(4g/	-fia-	.	(4b\	-fia-
.	4cc 4a\	.	.	.	.	4a/)	.	.	4cc\	.
.	4dd 4b\	.	4G\	-rę	.	4b/	-re	.	4dd\)	-rę
=11	=11	=11	=11	=11	=11	=11	=11	=11	=11	=11
2C/	4.ee 4.cc\	.	4.C/	czci	.	4.cc\	czci	.	4.ee\	czci
.	8cc 8a\	.	8C/	(i)	.	8a/	i	.	8cc\	i
4D/	8bL 8g\	.	8D/	dzięk-	.	8g/	dziek-	.	8b\	dzięk-
.	8aJ 8f#X\	.	8D/	-czy-	.	8f#/	-czy-	.	8a\	-czy-
=12	=12	=12	=12	=12	=12	=12	=12	=12	=12	=12
!	!LO:SIC:v:n-2:s=4f#/	!	!	!	!	!LO:SIC:v:s=4f#/	!	!	!	!
4D\	4a 4f/	.	4D/	-nie-	.	4f/	-nie-	.	4a/	-nie-
8G\	8g/	.	8G\	-nia	.	8g/	-nia	.	8g/	-nia
8r	8r	.	8r	.	.	8r	.	.	8r	.
4GG/	4g 4G/	.	4GG/	Niech	.	4g/	Niech	.	4g/	Niech
=13	=13	=13	=13	=13	=13	=13	=13	=13	=13	=13
*	*	*	*	*	*	*	*	*	*	*above
2BB/	2b 2B/	.	2BB/	Two-	.	2b\	Two-	.	2b\	Two-
4GG/	4g 4G/	.	4GG/	-ja	.	4g/	-ja	.	4g\	-ja
=14	=14	=14	=14	=14	=14	=14	=14	=14	=14	=14
*	*	*	*	*	*	*	*	*	*	*below
2D/	2dd 2d/	.	2D/	łas-	.	2dd\	las-	.	2dd\	łas-
4BB/	4b 4B/	.	4BB/	-ka	.	4b\	-ka	.	4b\	-ka
!	!	!	!	!	!	!	!	!	!LO:LB:g=original	!
=15	=15	=15	=15	=15	=15	=15	=15	=15	=15	=15
4.G\	4.ff 4.f\	.	4.F\	du-	.	4.ff\	du-	.	4.ff\	du-
8E\L	8eeL 8e\	.	8E\	-cha	.	8ee\	-cha	.	8ee\	-cha
8D\	8dd 8d\	.	8D\	w nas	.	8dd\	w nas	.	8dd\	w nas
8C\J	8ccJ 8c\	.	8C\	o-	.	8cc\	od-	.	8cc\	od-
!LO:LB:g=original	!LO:LB:g=original	!	!LO:LB:g=original	!	!	!LO:LB:g=original	!	!	!	!
=16	=16	=16	=16	=16	=16	=16	=16	=16	=16	=16
4G\	4gg 4g\	.	4G\	-dno-	.	4gg\	-no-	.	4gg\	-no-
16GG/	16g 16G/	.	16GG/	-wi	.	16g/	-wi	.	16g/	-wi
16r	16r	.	16r	.	.	16r	.	.	16r	.
8r	8g/L	.	8r	.	.	8r	.	.	8g/	i
4r	8a/	.	4r	.	.	4r	.	.	8a/	u-
.	8b/J	.	.	.	.	.	.	.	8b/	-to-
=17	=17	=17	=17	=17	=17	=17	=17	=17	=17	=17
*	*^	*	*	*	*	*	*	*	*	*
8r	2.cc/	8r	.	8r	.	.	8r	.	.	2cc\	-ru-
8C\L	.	8e\L	.	8C\	J	.	8e/	J	.	.	.
8D\	.	8f\	.	8D\	u-	.	8f/	u-	.	.	.
8E\	.	8g\	.	8E\	-to-	.	8g/	-to-	.	.	.
8F\	.	8a\	.	8F\	-ru-	.	8a/	-ru-	.	4cc\	-ie
8E\J	.	8g\J	.	8E\	-ie	.	8g/	-ie	.	.	.
*	*v	*v	*	*	*	*	*	*	*	*	*
=18	=18	=18	=18	=18	=18	=18	=18	=18	=18	=18
4D\	2dd 2f\	.	4D\	dro-	.	4.f/	dro-	.	4.dd\	dro-
4F\	.	.	4F\	-gę	.	.	.	.	.	.
.	.	.	.	.	.	8f/	-gę	.	8dd\	-ge
4G\	8ccL 8e/	.	8G\	do	.	8e/	do	.	8cc\	do
.	8bJ 8d/	.	8G\	zba-	.	8d/	zba-	.	8cc\	zba-
=19	=19	=19	=19	=19	=19	=19	=19	=19	=19	=19
4C/	4cc 4e\	.	(4C/	-wie-	.	4e/	-wie-	.	(4cc\	-wie-
4BB/	4dd 4g\	.	4BB/	.	.	(4g/	.	.	4dd\	.
4C/	4ee 4cc\	.	4C/)	.	.	4cc/)	.	.	4ee\)	.
!	!	!	!	!	!	!	!	!	!LO:LB:g=original	!
=20	=20	=20	=20	=20	=20	=20	=20	=20	=20	=20
4G\	4dd 4b\	.	4G\	-nia	.	4b\	-nia	.	4dd\	-nia
4r	8r	.	4r	.	.	8r	.	.	8r	.
.	8bL 8g\	.	.	.	.	8g/	I	.	8b\	i
4r	8cc 8a\	.	4r	.	.	8a/	u-	.	8cc\	u-
.	8ddJ 8b\	.	.	.	.	8b/	-to-	.	8dd\	-to-
!	!	!	!LO:LB:g=original	!	!	!LO:LB:g=original	!	!	!	!
=21	=21	=21	=21	=21	=21	=21	=21	=21	=21	=21
8r	2.ee 2.cc\	.	8r	.	.	2cc\	-ru-	.	2ee\	-ru-
8c\L	.	.	8c\	i	.	.	.	.	.	.
8B\	.	.	8B\	u-	.	.	.	.	.	.
8A\	.	.	8A\	-to-	.	.	.	.	.	.
8G\	.	.	8G\	-ru-	.	4cc\	-ie	.	4ee\	-ie
8F\J	.	.	8F\	-ie	.	.	.	.	.	.
=22	=22	=22	=22	=22	=22	=22	=22	=22	=22	=22
4E\	4ee 4cc\	.	4E\	dro-	.	4cc\	dro-	.	4ee\	dro-
4C\	4gg 4ee\	.	4C\	-gę	.	4ee\	-gę	.	4gg\	-gę
4F\	4ff 4dd\	.	8F\	do	.	8dd\	do	.	8ff\	do
.	.	.	8F\	zba-	.	8dd\	zba-	.	8ff\	zba-
=23	=23	=23	=23	=23	=23	=23	=23	=23	=23	=23
2.G\	2ee 2cc\	.	2.G\	-wie-	.	(2cc\	-wie-	.	(2ee\	-wie-
.	4dd 4b\	.	.	.	.	4b\)	.	.	4dd\)	.
!LO:LB:g=original	!LO:LB:g=original	!	!	!	!	!	!	!	!	!
=24	=24	=24	=24	=24	=24	=24	=24	=24	=24	=24
*>A1	*>A1	*>A1	*>A1	*>A1	*>A1	*>A1	*>A1	*>A1	*>A1	*>A1
!	!	!	!LO:TX:a:t=1	!	!	!LO:TX:a:t=1.	!	!	!LO:TX:a:t=1ro raz	!
4C/	8cc\L	.	4C/	-nia	.	4cc\	-nia	.	4cc\	-nia
.	8g\	.	.	.	.	.	.	.	.	.
4r	8e\	.	4r	.	.	4r	.	.	4ryy	.
.	8f\J	.	.	.	.	.	.	.	.	.
4ryy	4ryy	.	4r	.	.	4ryy	.	.	4ryy	.
=25:|!	=25:|!	=25:|!	=25:|!	=25:|!	=25:|!	=25:|!	=25:|!	=25:|!	=25:|!	=25:|!
*>A2	*>A2	*>A2	*>A2	*>A2	*>A2	*>A2	*>A2	*>A2	*>A2	*>A2
!	!	!	!LO:TX:a:t=2.	!	!	!LO:TX:a:t=2	!	!	!LO:TX:a:t=2ru raz	!
4C/	8cc/L	.	4C/	nia	.	4cc\	nia	.	4cc\	.
.	8e 8c/	.	.	.	.	.	.	.	.	.
4r	8f 8d/	.	4r	.	.	4r	.	.	4r	.
.	8g 8e/	.	.	.	.	.	.	.	.	.
4r	8a 8f/	.	4r	.	.	4r	.	.	4r	.
.	8bJ 8d/	.	.	.	.	.	.	.	.	.
!	!	!	!LO:LB:g=original	!	!	!	!	!	!LO:LB:g=original	!
=26	=26	=26	=26	=26	=26	=26	=26	=26	=26	=26
*>B	*>B	*>B	*>B	*>B	*>B	*>B	*>B	*>B	*>B	*>B
!	!	!LO:DY:rj	!	!	!LO:DY:a	!	!	!LO:DY:a:rj	!	!
2C/	2cc 2c/	f	2C/	A-	f	2cc\	A-	f	2cc\	.
4GG/	4g 4G/	.	4GG/	-men	.	4g/	-men	.	4g/	.
=27	=27	=27	=27	=27	=27	=27	=27	=27	=27	=27
*	*	*	*	*ij	*	*	*ij	*	*	*
2E\	2ee 2e/	.	2E\	A-	.	2ee\	A-	.	2ee\	.
4C\	4cc 4c/	.	4C/	-men	.	4b\	-men	.	4cc\	.
*	*	*	*	*	*	*	*Xij	*	*	*
=28	=28	=28	=28	=28	=28	=28	=28	=28	=28	=28
2.G 2.D 2.BB 2.GG\	2.gg 2.dd 2.b 2.g\	.	2.G\	A-	.	2.gg\	A-	.	2.gg\	.
!	!	!	!	!	!	!LO:LB:g=original	!	!	!	!
=29	=29	=29	=29	=29	=29	=29	=29	=29	=29	=29
8GL 8E 8C\	8eeL 8cc 8g\	.	4E\	-men	.	4ee\	-men	.	4ee\	.
8c\	8cc\	.	.	.	.	.	.	.	.	.
8G\	8g\	.	4r	.	.	4r	.	.	4r	.
8F\	8f\	.	.	.	.	.	.	.	.	.
8E\	8e\	.	4r	.	.	4r	.	.	4r	.
8D\J	8d\J	.	.	.	.	.	.	.	.	.
=30	=30	=30	=30	=30	=30	=30	=30	=30	=30	=30
*	*	*	*	*	*	*	*ij	*	*	*
2C/	2ee 2e/	.	2C/	A-	.	2cc\	A-	.	2cc\	.
4GG/	4cc 4c/	.	4GG/	-men	.	4g/	-men	.	4g/	.
=31	=31	=31	=31	=31	=31	=31	=31	=31	=31	=31
2E\	2ee 2e\	.	2E\	A-	.	2ee\	A-	.	2ee\	.
4C/	4cc 4c/	.	4C\	-men	.	4cc\	-men	.	4cc\	.
=32	=32	=32	=32	=32	=32	=32	=32	=32	=32	=32
2.G 2.D 2.BB 2.GG\	2.gg 2.dd 2.b 2.g\	.	2.G\	A-	.	2.gg\	A-	.	2.gg\	.
=33	=33	=33	=33	=33	=33	=33	=33	=33	=33	=33
4G 4E 4C\	4cc 4g 4e/	.	4C/	-men	.	4cc\	-men	.	4cc\	.
8C\L	8c/L	.	4r	.	.	4r	.	.	4r	.
8E\	8e/	.	.	.	.	.	.	.	.	.
8G\	8g/	.	4r	.	.	4r	.	.	4r	.
8c\J	8cc/J	.	.	.	.	.	.	.	.	.
!LO:LB:g=original	!LO:LB:g=original	!	!	!	!	!	!	!	!	!
=34	=34	=34	=34	=34	=34	=34	=34	=34	=34	=34
2.G 2.D 2.BB 2.GG\	2.dd 2.b 2.g 2.d\	.	2.G\	A-	.	2.b\	A-	.	2.ee\	.
=35	=35	=35	=35	=35	=35	=35	=35	=35	=35	=35
4G 4E 4C\	4ee 4cc 4g 4e\	.	4C/	-men	.	4cc\	-men	.	4ee\	.
8C\L	8c/L	.	4r	.	.	4r	.	.	4r	.
8E\	8e/	.	.	.	.	.	.	.	.	.
8G\	8g/	.	4r	.	.	4r	.	.	4r	.
8c\J	8cc/J	.	.	.	.	.	.	.	.	.
!	!	!	!	!	!	!	!	!	!LO:LB:g=original	!
=36	=36	=36	=36	=36	=36	=36	=36	=36	=36	=36
2.G 2.D 2.BB 2.GG\	2.dd 2.b 2.g 2.d\	.	2.G\	A-	.	2.b\	A-	.	2.dd\	.
!	!	!	!LO:LB:g=original	!	!	!	!	!	!	!
=37	=37	=37	=37	=37	=37	=37	=37	=37	=37	=37
4G 4E 4C\	4ee 4cc 4g 4e\	.	4C/	-men	.	4cc\	-men	.	4ee\	.
*	*	*	*	*Xij	*	*	*	*	*	*
8E/L	8c/L	.	4r	.	.	4r	.	.	4r	.
8C/	8e/	.	.	.	.	.	.	.	.	.
8GG/	8g/	.	4r	.	.	4r	.	.	4r	.
8EE/J	8cc/J	.	.	.	.	.	.	.	.	.
=38	=38	=38	=38	=38	=38	=38	=38	=38	=38	=38
!	!	!	!LO:N:vis=1	!	!	!	!	!	!	!
2.C 2.GG 2.CC;/	[2.ee [2.cc [>2.g [>2.e;\	.	2.C;/	A-	.	2.g;/	A-	.	2.ee;\	.
=39	=39	=39	=39	=39	=39	=39	=39	=39	=39	=39
4C 4GG 4CC/	4ee] 4cc] 4g] 4e/]	.	4C/	-men	.	4g/	-men	.	4ee\	.
*	*	*	*	*	*	*	*Xij	*	*	*
4r	4r	.	4r	.	.	4r	.	.	4r	.
!	!LO:TX:b:i:t=Finis	!	!	!	!	!	!	!	!LO:TX:t=P:problem:brak kreski taktowej	!
4r	4r	.	4r	.	.	4r	.	.	4r	.
==	==	==	==	==	==	==	==	==	==	==
*-	*-	*-	*-	*-	*-	*-	*-	*-	*-	*-
!!!system-decoration: [(s1,s2,s3)]{(s4,s5)}
!!!RDF**kern: > = above
!!!RDF**kern: < = below
!!!ENC: Tomasz Grochalski
!!!END: 2020-08-31
!!!ENC: Marta Lawrence
!!!END: 2021-11-08
